packages/katcn/src/icons/svg/files-solid.svg

<svg width="24" height="25" viewBox="0 0 24 25" fill="none" xmlns="http://www.w3.org/2000/svg">
<path d="M16 21.3113H7.3C5.5 21.3113 4 20.0265 4 18.3462V7.27646C4 6.68343 3.5 6.28809 3 6.28809C2.5 6.28809 2 6.68343 2 7.27646V18.3462C2 21.1137 4.4 23.2881 7.3 23.2881H16C16.6 23.2881 17 22.8927 17 22.2997C17 21.7067 16.6 21.3113 16 21.3113Z" fill="black"/>
<path d="M20.9068 6.0094L16.7329 2.27169C16.0373 1.68153 15.1429 1.28809 14.2484 1.28809H8.68323C7.19255 1.28809 6 2.37005 6 3.7471V16.8291C6 18.2061 7.19255 19.2881 8.68323 19.2881H19.3168C20.8075 19.2881 22 18.2061 22 16.8291V9.45202V8.37005C21.9006 7.48481 21.5031 6.69792 20.9068 6.0094Z" fill="black"/>
</svg>

<svg xmlns="http://www.w3.org/2000/svg" fill="none" viewBox="0 0 24 25"><path fill="#000" d="M16 21.311H7.3c-1.8 0-3.3-1.285-3.3-2.965V7.276c0-.593-.5-.988-1-.988s-1 .395-1 .988v11.07c0 2.768 2.4 4.942 5.3 4.942H16c.6 0 1-.395 1-.988s-.4-.989-1-.989"/><path fill="#000" d="m20.907 6.01-4.174-3.738c-.696-.59-1.59-.984-2.485-.984H8.683C7.193 1.288 6 2.37 6 3.748v13.081c0 1.377 1.193 2.46 2.683 2.46h10.634c1.49 0 2.683-1.083 2.683-2.46V8.37c-.1-.885-.497-1.672-1.093-2.36"/></svg>
